X: 983
T: Poll ha'penny
C: anon.
O: Ireland
B: Francis O'Neill: "The Dance Music of Ireland" (1907) no. 983
R: Long dance, set dance
Z: Transcribed by Frank Nordberg - http://www.musicaviva.com
F: http://www.musicaviva.com/abc/tunes/ireland/oneill-1001/oneill-1001-098
3.abc
M: C
L: 1/8
K: Ador
ed|cAAB AG (3(ABc)|dcAF G2cd|edce dcAF|G2GF G2ed|cAAB AGEG|cAGE G2cd|edce
 dcAG|A2AAA2||de|f2fd e2ed|
cdef g3b|aged cAdc|A2AA A2(3(def)|gfga gfef|gfga g2ed|eaab aged|eaab a2ag
|f2fd e2ed|cdef g3b|aged cAdc|A2AAA2|]
W:
W:
W: From Musica Viva - http://www.musicaviva.com
W: the Internet center for free sheet music downloads.


